X: 681
T: the Sailor's Cravat   #2
R: reel
%S: s:2 b:11(5.5+5.5)
B: Francis O'Neill: "The Dance Music of Ireland" (1907) #681
Z: Frank Nordberg - http://www.musicaviva.om
F: http://www.musicaviva.com/abc/tunes/ireland/oneill-1001/0681/oneill-1001-0681-1.abc
%m: Mn = (3n/o/n/
M: C|
L: 1/8
K: D
"^A"\
|: d2(fe) dcBd | ABFB ADFA | d2(fe) \
[1 dcAd | AFDF (~GE)Ez :|[2 dcBd | AFEG FDD2 |]
"^B"\
|: AddA BAFA | defd (Be)ez | AddA \
[1 BcdB | AFGE FDD2 :|[2 Bgfe | dBAG FDD2 |]
